fadelesskekse/control_framework/csv_data/cart_pole/excel_record_log.csv
sim_time,cart_joint_position,pole_joint_position,cart_joint_velocity,pole_joint_velocity,control_input_0
0.016000000,0.302786077,0.299458411,0.085155585,-0.263266543,-13.214707552
0.036000000,0.302225077,0.288752585,-0.110302805,-0.724001372,-9.446787985
0.056000000,0.298431992,0.271012099,-0.247237191,-0.997497568,-6.754528670
0.076000000,0.292381132,0.249278243,-0.342548699,-1.144162139,-4.815550281
0.096000000,0.284768157,0.225607758,-0.408058377,-1.205350860,-3.411673457
0.116000000,0.276092138,0.201376316,-0.452154873,-1.209869820,-2.389423549
0.136000000,0.266712258,0.177484010,-0.480814663,-1.177841158,-1.639021855
0.156000000,0.256888091,0.154499705,-0.498289180,-1.123223902,-1.081843473
0.176000000,0.246808458,0.132763939,-0.507593973,-1.055577191,-0.661976884
0.196000000,0.236612047,0.112462193,-0.510865197,-0.981338886,-0.340070357
0.216000000,0.226401994,0.093676555,-0.509619628,-0.904760257,-0.088704996
0.236000000,0.216256113,0.076421625,-0.504942201,-0.828583482,0.111076955
0.256000000,0.206233988,0.060669110,-0.497619138,-0.754525028,0.272331963
0.276000000,0.196381865,0.046364404,-0.488230943,-0.683614454,0.404061478
0.296000000,0.186736028,0.033437615,-0.477216402,-0.616427841,0.512514997
0.316000000,0.177325123,0.021810785,-0.464916101,-0.553246167,0.602092134
0.336000000,0.168171782,0.011402561,-0.451601741,-0.494161289,0.675956895
0.356000000,0.159293770,0.002131152,-0.437495758,-0.439146041,0.736450261
0.376000000,0.150704819,-0.006083823,-0.422784418,-0.388100096,0.785364144
0.396000000,0.142415250,-0.013320222,-0.407626572,-0.340879686,0.824121592
0.416000000,0.134432449,-0.019652735,-0.392159547,-0.297316674,0.853894380
0.436000000,0.126761257,-0.025152537,-0.376503155,-0.257230678,0.875679268
0.456000000,0.119404282,-0.029887138,-0.360762487,-0.220436691,0.890347176
0.476000000,0.112362174,-0.033920341,-0.345029913,-0.186749809,0.898674818
0.496000000,0.105633861,-0.037312280,-0.329386569,-0.155988122,0.901365023
0.516000000,0.099216761,-0.040119501,-0.313903514,-0.127974443,0.899059855
0.536000000,0.093106974,-0.042395068,-0.298642676,-0.102537304,0.892349179
0.556000000,0.087299451,-0.044188685,-0.283657651,-0.079511515,0.881776401
0.576000000,0.081788158,-0.045546821,-0.268994410,-0.058738434,0.867842468
0.596000000,0.076566221,-0.046512850,-0.254691942,-0.040066088,0.851008829
0.616000000,0.071626055,-0.047127176,-0.240782842,-0.023349181,0.831699797
0.636000000,0.066959490,-0.047427371,-0.227293868,-0.008449053,0.810304563
0.656000000,0.062557878,-0.047448308,-0.214246455,0.004766403,0.787179046
0.676000000,0.058412198,-0.047222287,-0.201657213,0.016422837,0.762647644
0.696000000,0.054513145,-0.046779166,-0.189538381,0.026639564,0.737004949
0.716000000,0.050851213,-0.046146485,-0.177898270,0.035529688,0.710517441
0.736000000,0.047416770,-0.045349588,-0.166741666,0.043200243,0.683425171
0.756000000,0.044200123,-0.044411745,-0.156070216,0.049752333,0.655943418
0.776000000,0.041191577,-0.043354267,-0.145882785,0.055281294,0.628264329
0.796000000,0.038381487,-0.042196621,-0.136175787,0.059876850,0.600558519
0.816000000,0.035760304,-0.040956539,-0.126943493,0.063623289,0.572976629
0.836000000,0.033318615,-0.039650125,-0.118178314,0.066599637,0.545650830
0.856000000,0.031047175,-0.038291960,-0.109871066,0.068879846,0.518696267
0.876000000,0.028936941,-0.036895198,-0.102011202,0.070532979,0.492212441
0.896000000,0.026979092,-0.035471666,-0.094587037,0.071623405,0.466284520
0.916000000,0.025165050,-0.034031952,-0.087585943,0.072210998,0.440984579
0.936000000,0.023486502,-0.032585494,-0.080994532,0.072351333,0.416372772
0.956000000,0.021935405,-0.031140665,-0.074798814,0.072095886,0.392498427
0.976000000,0.020504005,-0.029704850,-0.068984351,0.071492234,0.369401075
0.996000000,0.019184838,-0.028284525,-0.063536381,0.070584251,0.347111408
1.016000000,0.017970739,-0.026885328,-0.058439939,0.069412304,0.325652172
1.036000000,0.016854843,-0.025512124,-0.053679961,0.068013447,0.305038989
1.056000000,0.015830586,-0.024169073,-0.049241379,0.066421604,0.285281132
1.076000000,0.014891705,-0.022859690,-0.045109195,0.064667759,0.266382227
1.096000000,0.014032237,-0.021586900,-0.041268561,0.062780128,0.248340906
1.116000000,0.013246512,-0.020353092,-0.037704835,0.060784337,0.231151413
1.136000000,0.012529150,-0.019160172,-0.034403637,0.058703583,0.214804149
1.156000000,0.011875056,-0.018009603,-0.031350893,0.056558801,0.199286186
1.176000000,0.011279412,-0.016902457,-0.028532875,0.054368811,0.184581724
1.196000000,0.010737672,-0.015839449,-0.025936234,0.052150470,0.170672515
1.216000000,0.010245552,-0.014820977,-0.023548022,0.049918811,0.157538251
1.236000000,0.009799020,-0.013847159,-0.021355719,0.047687176,0.145156912
1.256000000,0.009394292,-0.012917862,-0.019347245,0.045467346,0.133505086
1.276000000,0.009027821,-0.012032734,-0.017510973,0.043269659,0.122558252
1.296000000,0.008696286,-0.011191231,-0.015835738,0.041103123,0.112291044
1.316000000,0.008396584,-0.010392642,-0.014310843,0.038975530,0.102677482
1.336000000,0.008125823,-0.009636113,-0.012926057,0.036893551,0.093691182
1.356000000,0.007881308,-0.008920669,-0.011671618,0.034862835,0.085305539
1.376000000,0.007660535,-0.008245230,-0.010538227,0.032888099,0.077493898
1.396000000,0.007461182,-0.007608634,-0.009517046,0.030973210,0.070229695
1.416000000,0.007281096,-0.007009647,-0.008599686,0.029121268,0.063486592
1.436000000,0.007118291,-0.006446983,-0.007778202,0.027334676,0.057238583
1.456000000,0.006970931,-0.005919316,-0.007045085,0.025615209,0.051460098
1.476000000,0.006837328,-0.005425288,-0.006393243,0.023964081,0.046126083
1.496000000,0.006715931,-0.004963523,-0.005815999,0.022382001,0.041212072
1.516000000,0.006605317,-0.004532638,-0.005307070,0.020869231,0.036694251
1.536000000,0.006504185,-0.004131247,-0.004860557,0.019425636,0.032549502
1.556000000,0.006411349,-0.003757971,-0.004470933,0.018050728,0.028755447
1.576000000,0.006325729,-0.003411445,-0.004133025,0.016743717,0.025290478
1.596000000,0.006246343,-0.003090321,-0.003842003,0.015503543,0.022133783
1.616000000,0.006172305,-0.002793278,-0.003593363,0.014328918,0.019265362
1.636000000,0.006102812,-0.002519021,-0.003382913,0.013218358,0.016666036
1.656000000,0.006037145,-0.002266285,-0.003206761,0.012170213,0.014317454
1.676000000,0.005974658,-0.002033842,-0.003061295,0.011182696,0.012202093
1.696000000,0.005914774,-0.001820500,-0.002943176,0.010253909,0.010303255
1.716000000,0.005856980,-0.001625106,-0.002849319,0.009381865,0.008605056
1.736000000,0.005800824,-0.001446548,-0.002776879,0.008564508,0.007092417
1.756000000,0.005745905,-0.001283755,-0.002723243,0.007799735,0.005751048
1.776000000,0.005691875,-0.001135700,-0.002686009,0.007085411,0.004567435
1.796000000,0.005638430,-0.001001396,-0.002662983,0.006419382,0.003528814
1.816000000,0.005585308,-0.000879901,-0.002652156,0.005799491,0.002623159
1.836000000,0.005532285,-0.000770317,-0.002651701,0.005223592,0.001839152
1.856000000,0.005479174,-0.000671787,-0.002659959,0.004689553,0.001166166
1.876000000,0.005425815,-0.000583497,-0.002675425,0.004195272,0.000594235
1.896000000,0.005372081,-0.000504674,-0.002696742,0.003738684,0.000114033
1.916000000,0.005317867,-0.000434588,-0.002722688,0.003317765,-0.000283151
1.936000000,0.005263094,-0.000372546,-0.002752167,0.002930537,-0.000605442
1.956000000,0.005207702,-0.000317896,-0.002784201,0.002575079,-0.000860402
1.976000000,0.005151649,-0.000270024,-0.002817921,0.002249525,-0.001055058
1.996000000,0.005094911,-0.000228350,-0.002852558,0.001952067,-0.001195924
2.016000000,0.005037476,-0.000192333,-0.002887435,0.001680964,-0.001289030
2.036000000,0.004979346,-0.000161464,-0.002921962,0.001434537,-0.001339945
2.056000000,0.004920535,-0.000135267,-0.002955624,0.001211173,-0.001353804
2.076000000,0.004861064,-0.000113298,-0.002987981,0.001009327,-0.001335326
2.096000000,0.004800964,-0.000095143,-0.003018657,0.000827519,-0.001288844
2.116000000,0.004740272,-0.000080417,-0.003047336,0.000664339,-0.001218323
2.136000000,0.004679030,-0.000068763,-0.003073757,0.000518441,-0.001127386
2.156000000,0.004617288,-0.000059848,-0.003097706,0.000388547,-0.001019329
2.176000000,0.004555095,-0.000053367,-0.003119015,0.000273443,-0.000897150
2.196000000,0.004492506,-0.000049036,-0.003137558,0.000171980,-0.000763559
2.216000000,0.004429577,-0.000046594,-0.003153241,0.000083071,-0.000621005
2.236000000,0.004366367,-0.000045802,-0.003166004,0.000005690,-0.000471690
2.256000000,0.004302934,-0.000046440,-0.003175817,-0.000061130,-0.000317587
2.276000000,0.004239338,-0.000048307,-0.003182672,-0.000118298,-0.000160456
2.296000000,0.004175636,-0.000051218,-0.003186586,-0.000166668,-0.000001860
2.316000000,0.004111889,-0.000055008,-0.003187594,-0.000207040,0.000156820
2.336000000,0.004048152,-0.000059525,-0.003185749,-0.000240162,0.000314371
2.356000000,0.003984484,-0.000064631,-0.003181117,-0.000266733,0.000469733
2.376000000,0.003920938,-0.000070202,-0.003173778,-0.000287404,0.000621991
2.396000000,0.003857568,-0.000076128,-0.003163820,-0.000302782,0.000770359
2.416000000,0.003794424,-0.000082308,-0.003151343,-0.000313430,0.000914169
2.436000000,0.003731557,-0.000088654,-0.003136451,-0.000319869,0.001052862
2.456000000,0.003669014,-0.000095087,-0.003119255,-0.000322583,0.001185980
2.476000000,0.003606839,-0.000101537,-0.003099869,-0.000322016,0.001313151
2.496000000,0.003545074,-0.000107944,-0.003078412,-0.000318579,0.001434087
2.516000000,0.003483760,-0.000114254,-0.003055003,-0.000312649,0.001548571
2.536000000,0.003422935,-0.000120422,-0.003029763,-0.000304572,0.001656451
2.556000000,0.003362633,-0.000126407,-0.003002812,-0.000294665,0.001757635
2.576000000,0.003302888,-0.000132176,-0.002974271,-0.000283216,0.001852082
2.596000000,0.003243731,-0.000137703,-0.002944259,-0.000270489,0.001939797
2.616000000,0.003185188,-0.000142963,-0.002912892,-0.000256721,0.002020827
2.636000000,0.003127287,-0.000147938,-0.002880286,-0.000242129,0.002095253
2.656000000,0.003070051,-0.000152614,-0.002846552,-0.000226907,0.002163186
2.676000000,0.003013501,-0.000156980,-0.002811800,-0.000211229,0.002224766
2.696000000,0.002957655,-0.000161029,-0.002776134,-0.000195252,0.002280153
2.716000000,0.002902533,-0.000164757,-0.002739658,-0.000179116,0.002329527
2.736000000,0.002848148,-0.000168161,-0.002702468,-0.000162943,0.002373085
2.756000000,0.002794513,-0.000171243,-0.002664660,-0.000146843,0.002411034
2.776000000,0.002741641,-0.000174004,-0.002626322,-0.000130910,0.002443593
2.796000000,0.002689540,-0.000176449,-0.002587542,-0.000115229,0.002470989
2.816000000,0.002638219,-0.000178584,-0.002548400,-0.000099870,0.002493453
2.836000000,0.002587685,-0.000180416,-0.002508975,-0.000084896,0.002511220
2.856000000,0.002537941,-0.000181954,-0.002469339,-0.000070356,0.002524527
2.876000000,0.002488992,-0.000183205,-0.002429561,-0.000056296,0.002533612
2.896000000,0.002440839,-0.000184181,-0.002389707,-0.000042749,0.002538709
2.916000000,0.002393483,-0.000184892,-0.002349838,-0.000029744,0.002540054
2.936000000,0.002346925,-0.000185349,-0.002310011,-0.000017302,0.002537875
2.956000000,0.002301162,-0.000185564,-0.002270279,-0.000005439,0.002532400
2.976000000,0.002256192,-0.000185548,-0.002230692,0.000005835,0.002523848
2.996000000,0.002212012,-0.000185313,-0.002191295,0.000016513,0.002512435
3.016000000,0.002168617,-0.000184871,-0.002152131,0.000026594,0.002498371
3.036000000,0.002126003,-0.000184233,-0.002113239,0.000036080,0.002481856
3.056000000,0.002084163,-0.000183413,-0.002074655,0.000044975,0.002463086
3.076000000,0.002043091,-0.000182421,-0.002036411,0.000053289,0.002442250
3.096000000,0.002002780,-0.000181269,-0.001998537,0.000061031,0.002419526
3.116000000,0.001963222,-0.000179969,-0.001961060,0.000068213,0.002395088
3.136000000,0.001924409,-0.000178530,-0.001924004,0.000074850,0.002369101
3.156000000,0.001886333,-0.000176965,-0.001887391,0.000080958,0.002341721
3.176000000,0.001848983,-0.000175284,-0.001851240,0.000086554,0.002313097
3.196000000,0.001812352,-0.000173496,-0.001815568,0.000091654,0.002283371
3.216000000,0.001776428,-0.000171611,-0.001780390,0.000096279,0.002252677
3.236000000,0.001741203,-0.000169639,-0.001745717,0.000100447,0.002221141
3.256000000,0.001706665,-0.000167588,-0.001711562,0.000104178,0.002188881
3.276000000,0.001672804,-0.000165468,-0.001677934,0.000107492,0.002156010
3.296000000,0.001639611,-0.000163285,-0.001644839,0.000110409,0.002122632
3.316000000,0.001607073,-0.000161048,-0.001612283,0.000112949,0.002088846
3.336000000,0.001575180,-0.000158765,-0.001580271,0.000115131,0.002054742
3.356000000,0.001543922,-0.000156441,-0.001548806,0.000116976,0.002020405
3.376000000,0.001513287,-0.000154084,-0.001517890,0.000118503,0.001985915
3.396000000,0.001483264,-0.000151700,-0.001487522,0.000119730,0.001951344
3.416000000,0.001453842,-0.000149295,-0.001457704,0.000120676,0.001916761
3.436000000,0.001425011,-0.000146873,-0.001428433,0.000121360,0.001882226
3.456000000,0.001396759,-0.000144441,-0.001399708,0.000121799,0.001847797
3.476000000,0.001369076,-0.000142002,-0.001371524,0.000122010,0.001813526
3.496000000,0.001341951,-0.000139562,-0.001343879,0.000122008,0.001779461
3.516000000,0.001315372,-0.000137124,-0.001316768,0.000121811,0.001745645
3.536000000,0.001289330,-0.000134691,-0.001290186,0.000121433,0.001712116
3.556000000,0.001263814,-0.000132268,-0.001264127,0.000120889,0.001678909
3.576000000,0.001238813,-0.000129858,-0.001238585,0.000120192,0.001646057
3.596000000,0.001214317,-0.000127463,-0.001213555,0.000119356,0.001613587
3.616000000,0.001190317,-0.000125086,-0.001189028,0.000118393,0.001581523
3.636000000,0.001166802,-0.000122730,-0.001164998,0.000117315,0.001549888
3.656000000,0.001143761,-0.000120397,-0.001141458,0.000116134,0.001518700
3.676000000,0.001121187,-0.000118088,-0.001118399,0.000114860,0.001487975
3.696000000,0.001099068,-0.000115805,-0.001095815,0.000113503,0.001457727
3.716000000,0.001077396,-0.000113551,-0.001073696,0.000112073,0.001427968
3.736000000,0.001056161,-0.000111326,-0.001052036,0.000110579,0.001398706
3.756000000,0.001035354,-0.000109131,-0.001030825,0.000109029,0.001369950
3.776000000,0.001014967,-0.000106968,-0.001010055,0.000107431,0.001341705
3.796000000,0.000994990,-0.000104838,-0.000989719,0.000105792,0.001313974
3.816000000,0.000975415,-0.000102740,-0.000969807,0.000104118,0.001286761
3.836000000,0.000956234,-0.000100676,-0.000950312,0.000102417,0.001260066
3.856000000,0.000937439,-0.000098647,-0.000931224,0.000100694,0.001233890
3.876000000,0.000919021,-0.000096652,-0.000912537,0.000098955,0.001208230
3.896000000,0.000900972,-0.000094692,-0.000894241,0.000097204,0.001183084
3.916000000,0.000883285,-0.000092768,-0.000876328,0.000095446,0.001158450
3.936000000,0.000865952,-0.000090878,-0.000858791,0.000093685,0.001134322
3.956000000,0.000848965,-0.000089024,-0.000841621,0.000091926,0.001110697
3.976000000,0.000832318,-0.000087204,-0.000824810,0.000090171,0.001087568
3.996000000,0.000816004,-0.000085420,-0.000808351,0.000088424,0.001064930
