fadelesskekse/control_framework/csv_data/cart_pole/excel_record_log.csv
sim_time,cart_joint_position,pole_joint_position,cart_joint_velocity,pole_joint_velocity,control_input_0
0.012000000,0.302398194,0.300392428,0.133270946,-0.141359495,-14.137259441
0.032000000,0.302633134,0.291575720,-0.076549821,-0.649209062,-10.101474708
0.052000000,0.299397764,0.274960444,-0.223634328,-0.954549331,-7.224247347
0.072000000,0.293735275,0.253834388,-0.326191372,-1.122779044,-5.154663993
0.092000000,0.286389450,0.230422818,-0.396897976,-1.198424057,-3.657736142
0.112000000,0.277893494,0.206218734,-0.444733269,-1.212431780,-2.569125075
0.132000000,0.268630910,0.182204195,-0.476093131,-1.186427819,-1.771500636
0.152000000,0.258878572,0.159004956,-0.495529754,-1.135443713,-1.180777316
0.172000000,0.248837576,0.137000543,-0.506273733,-1.069803321,-0.737051497
0.192000000,0.238655302,0.116402720,-0.510613608,-0.996484439,-0.398071816
0.212000000,0.228441061,0.097310947,-0.510172999,-0.920114238,-0.134343585
0.232000000,0.218277078,0.079751047,-0.506111043,-0.843692619,0.074552256
0.252000000,0.208226131,0.063701764,-0.499265162,-0.769110083,0.242684522
0.272000000,0.198336825,0.049112722,-0.490251091,-0.697512014,0.379746270
0.292000000,0.188647222,0.035916409,-0.479531926,-0.629550490,0.492454204
0.312000000,0.179187347,0.024036038,-0.467465169,-0.565555624,0.585520961
0.332000000,0.169980930,0.013390654,-0.454334473,-0.505650538,0.662319251
0.352000000,0.161046635,0.003898377,-0.440370904,-0.449827560,0.725329054
0.372000000,0.152398944,-0.004521563,-0.425767149,-0.397998195,0.776435203
0.392000000,0.144048820,-0.011947594,-0.410686997,-0.350025559,0.817123464
0.412000000,0.136004201,-0.018455074,-0.395271709,-0.305745238,0.848608690
0.432000000,0.128270411,-0.024115900,-0.379644344,-0.264978574,0.871918001
0.452000000,0.120850482,-0.028998318,-0.363912759,-0.227541032,0.887944503
0.472000000,0.113745434,-0.033166873,-0.348171734,-0.193247408,0.897481833
0.492000000,0.106954524,-0.036682428,-0.332504551,-0.161915026,0.901246362
0.512000000,0.100475454,-0.039602238,-0.316984205,-0.133365656,0.899891506
0.532000000,0.094304573,-0.041980054,-0.301674380,-0.107426631,0.894017038
0.552000000,0.088437051,-0.043866241,-0.286630280,-0.083931475,0.884175294
0.572000000,0.082867037,-0.045307907,-0.271899348,-0.062720225,0.870875449
0.592000000,0.077587815,-0.046349032,-0.257521922,-0.043639569,0.854586649
0.612000000,0.072591932,-0.047030604,-0.243531829,-0.026542878,0.835740463
0.632000000,0.067871324,-0.047390751,-0.229956951,-0.011290171,0.814732957
0.652000000,0.063417432,-0.047464875,-0.216819750,0.002251962,0.791926561
0.672000000,0.059221302,-0.047285781,-0.204137761,0.014210454,0.767651839
0.692000000,0.055273679,-0.046883804,-0.191924062,0.024705878,0.742209209
0.712000000,0.051565091,-0.046286939,-0.180187717,0.033852568,0.715870638
0.732000000,0.048085925,-0.045520958,-0.168934185,0.041758760,0.688881329
0.752000000,0.044826495,-0.044609539,-0.158165711,0.048526734,0.661461384
0.772000000,0.041777102,-0.043574373,-0.147881689,0.054252966,0.633807446
0.792000000,0.038928089,-0.042435289,-0.138078998,0.059028288,0.606094312
0.812000000,0.036269882,-0.041210355,-0.128752315,0.062938063,0.578476495
0.832000000,0.033793039,-0.039915994,-0.119894401,0.066062354,0.551089741
0.852000000,0.031488280,-0.038567082,-0.111496370,0.068476112,0.524052490
0.872000000,0.029346519,-0.037177052,-0.103547930,0.070249363,0.497467263
0.892000000,0.027358886,-0.035757989,-0.096037608,0.071447399,0.471421993
0.912000000,0.025516757,-0.034320721,-0.088952949,0.072130978,0.445991279
0.932000000,0.023811762,-0.032874909,-0.082280703,0.072356519,0.421237567
0.952000000,0.022235805,-0.031429132,-0.076006990,0.072176300,0.397212268
0.972000000,0.020781072,-0.029990969,-0.070117448,0.071638663,0.373956793
0.992000000,0.019440041,-0.028567069,-0.064597372,0.070788208,0.351503528
1.012000000,0.018205487,-0.027163233,-0.059431827,0.069665986,0.329876738
1.032000000,0.017070485,-0.025784476,-0.054605764,0.068309699,0.309093411
1.052000000,0.016028411,-0.024435093,-0.050104105,0.066753884,0.289164028
1.072000000,0.015072942,-0.023118725,-0.045911835,0.065030095,0.270093290
1.092000000,0.014198054,-0.021838409,-0.042014070,0.063167091,0.251880781
1.112000000,0.013398020,-0.020596637,-0.038396122,0.061191001,0.234521575
1.132000000,0.012667402,-0.019395409,-0.035043554,0.059125495,0.218006800
1.152000000,0.012001048,-0.018236272,-0.031942229,0.056991947,0.202324156
1.172000000,0.011394087,-0.017120373,-0.029078347,0.054809589,0.187458380
1.192000000,0.010841918,-0.016048496,-0.026438479,0.052595659,0.173391684
1.212000000,0.010340203,-0.015021099,-0.024009597,0.050365544,0.160104143
1.232000000,0.009884864,-0.014038353,-0.021779093,0.048132914,0.147574052
1.252000000,0.009472067,-0.013100174,-0.019734798,0.045909852,0.135778253
1.272000000,0.009098217,-0.012206250,-0.017864994,0.043706974,0.124692426
1.292000000,0.008759950,-0.011356073,-0.016158422,0.041533548,0.114291355
1.312000000,0.008454120,-0.010548966,-0.014604293,0.039397598,0.104549165
1.332000000,0.008177792,-0.009784100,-0.013192281,0.037306013,0.095439536
1.352000000,0.007928234,-0.009060522,-0.011912531,0.035264638,0.086935895
1.372000000,0.007702904,-0.008377172,-0.010755652,0.033278371,0.079011584
1.392000000,0.007499445,-0.007732904,-0.009712714,0.031351241,0.071640009
1.412000000,0.007315670,-0.007126496,-0.008775240,0.029486496,0.064794778
1.432000000,0.007149560,-0.006556673,-0.007935196,0.027686673,0.058449812
1.452000000,0.006999250,-0.006022115,-0.007184985,0.025953666,0.052579444
1.472000000,0.006863024,-0.005521468,-0.006517436,0.024288798,0.047158512
1.492000000,0.006739304,-0.005053361,-0.005925787,0.022692874,0.042162427
1.512000000,0.006626641,-0.004616411,-0.005403679,0.021166242,0.037567240
1.532000000,0.006523711,-0.004209232,-0.004945137,0.019708839,0.033349691
1.552000000,0.006429306,-0.003830443,-0.004544560,0.018320249,0.029487251
1.572000000,0.006342324,-0.003478675,-0.004196706,0.016999735,0.025958155
1.592000000,0.006261766,-0.003152578,-0.003896677,0.015746290,0.022741432
1.612000000,0.006186724,-0.002850823,-0.003639906,0.014558668,0.019816917
1.632000000,0.006116383,-0.002572111,-0.003422139,0.013435422,0.017165266
1.652000000,0.006050004,-0.002315170,-0.003239425,0.012374933,0.014767964
1.672000000,0.005986929,-0.002078764,-0.003088097,0.011375439,0.012607321
1.692000000,0.005926568,-0.001861696,-0.002964764,0.010435062,0.010666475
1.712000000,0.005868394,-0.001662803,-0.002866289,0.009551832,0.008929380
1.732000000,0.005811944,-0.001480965,-0.002789782,0.008723705,0.007380797
1.752000000,0.005756807,-0.001315103,-0.002732584,0.007948585,0.006006280
1.772000000,0.005702625,-0.001164180,-0.002692252,0.007224343,0.004792160
1.792000000,0.005649085,-0.001027202,-0.002666550,0.006548827,0.003725526
1.812000000,0.005595918,-0.000903219,-0.002653435,0.005919882,0.002794206
1.832000000,0.005542891,-0.000791323,-0.002651044,0.005335355,0.001986742
1.852000000,0.005489811,-0.000690648,-0.002657685,0.004793113,0.001292369
1.872000000,0.005436513,-0.000600373,-0.002671823,0.004291047,0.000700993
1.892000000,0.005382863,-0.000519717,-0.002692071,0.003827084,0.000203162
1.912000000,0.005328752,-0.000447940,-0.002717183,0.003399191,-0.000209957
1.932000000,0.005274097,-0.000384343,-0.002746037,0.003005381,-0.000546604
1.952000000,0.005218832,-0.000328265,-0.002777633,0.002643720,-0.000814452
1.972000000,0.005162914,-0.000279084,-0.002811081,0.002312331,-0.001020631
1.992000000,0.005106314,-0.000236216,-0.002845591,0.002009396,-0.001171757
2.012000000,0.005049018,-0.000199109,-0.002880470,0.001733158,-0.001273956
2.032000000,0.004991027,-0.000167249,-0.002915110,0.001481927,-0.001332885
2.052000000,0.004932351,-0.000140154,-0.002948983,0.001254076,-0.001353764
2.072000000,0.004873009,-0.000117374,-0.002981633,0.001048047,-0.001341395
2.092000000,0.004813032,-0.000098488,-0.003012672,0.000862346,-0.001300185
2.112000000,0.004752455,-0.000083106,-0.003041773,0.000695550,-0.001234172
2.132000000,0.004691320,-0.000070864,-0.003068664,0.000546300,-0.001147044
2.152000000,0.004629674,-0.000061427,-0.003093122,0.000413304,-0.001042162
2.172000000,0.004567567,-0.000054483,-0.003114971,0.000295337,-0.000922581
2.192000000,0.004505052,-0.000049743,-0.003134076,0.000191235,-0.000791069
2.212000000,0.004442187,-0.000046943,-0.003150336,0.000099899,-0.000650124
2.232000000,0.004379029,-0.000045839,-0.003163687,0.000020291,-0.000501996
2.252000000,0.004315636,-0.000046208,-0.003174091,-0.000048566,-0.000348703
2.272000000,0.004252067,-0.000047844,-0.003181537,-0.000107595,-0.000192047
2.292000000,0.004188382,-0.000050561,-0.003186037,-0.000157659,-0.000033627
2.312000000,0.004124639,-0.000054188,-0.003187623,-0.000199569,0.000125138
2.332000000,0.004060896,-0.000058570,-0.003186344,-0.000234083,0.000283004
2.352000000,0.003997210,-0.000063569,-0.003182263,-0.000261911,0.000438882
2.372000000,0.003933635,-0.000069056,-0.003175458,-0.000283712,0.000591827
2.392000000,0.003870225,-0.000074919,-0.003166017,-0.000300103,0.000741030
2.412000000,0.003807032,-0.000081056,-0.003154035,-0.000311653,0.000885799
2.432000000,0.003744106,-0.000087375,-0.003139617,-0.000318895,0.001025556
2.452000000,0.003681495,-0.000093797,-0.003122873,-0.000322316,0.001159822
2.472000000,0.003619242,-0.000100249,-0.003103916,-0.000322371,0.001288208
2.492000000,0.003557392,-0.000106669,-0.003082863,-0.000319477,0.001410410
2.512000000,0.003495985,-0.000113002,-0.003059835,-0.000314017,0.001526198
2.532000000,0.003435059,-0.000119202,-0.003034951,-0.000306343,0.001635408
2.552000000,0.003374650,-0.000125226,-0.003008333,-0.000296779,0.001737936
2.572000000,0.003314791,-0.000131041,-0.002980101,-0.000285616,0.001833732
2.592000000,0.003255514,-0.000136618,-0.002950373,-0.000273125,0.001922791
2.612000000,0.003196846,-0.000141933,-0.002919268,-0.000259547,0.002005153
2.632000000,0.003138815,-0.000146966,-0.002886901,-0.000245104,0.002080891
2.652000000,0.003081444,-0.000151703,-0.002853384,-0.000229993,0.002150113
2.672000000,0.003024755,-0.000156132,-0.002818827,-0.000214393,0.002212951
2.692000000,0.002968767,-0.000160245,-0.002783336,-0.000198465,0.002269562
2.712000000,0.002913499,-0.000164037,-0.002747013,-0.000182350,0.002320124
2.732000000,0.002858965,-0.000167506,-0.002709959,-0.000166175,0.002364829
2.752000000,0.002805179,-0.000170652,-0.002672267,-0.000150052,0.002403882
2.772000000,0.002752154,-0.000173477,-0.002634028,-0.000134079,0.002437502
2.792000000,0.002699898,-0.000175985,-0.002595330,-0.000118342,0.002465912
2.812000000,0.002648421,-0.000178182,-0.002556254,-0.000102913,0.002489343
2.832000000,0.002597729,-0.000180074,-0.002516879,-0.000087857,0.002508031
2.852000000,0.002547826,-0.000181669,-0.002477279,-0.000073227,0.002522211
2.872000000,0.002498718,-0.000182977,-0.002437525,-0.000059068,0.002532121
2.892000000,0.002450405,-0.000184008,-0.002397681,-0.000045416,0.002537998
2.912000000,0.002402890,-0.000184771,-0.002357811,-0.000032300,0.002540074
2.932000000,0.002356173,-0.000185278,-0.002317971,-0.000019744,0.002538582
2.952000000,0.002310251,-0.000185540,-0.002278216,-0.000007764,0.002533748
2.972000000,0.002265122,-0.000185569,-0.002238596,0.000003628,0.002525794
2.992000000,0.002220785,-0.000185377,-0.002199157,0.000014425,0.002514937
3.012000000,0.002177233,-0.000184975,-0.002159943,0.000024625,0.002501386
3.032000000,0.002134463,-0.000184376,-0.002120994,0.000034230,0.002485345
3.052000000,0.002092469,-0.000183591,-0.002082345,0.000043243,0.002467012
3.072000000,0.002051244,-0.000182633,-0.002044031,0.000051672,0.002446574
3.092000000,0.002010782,-0.000181512,-0.002006081,0.000059528,0.002424213
3.112000000,0.001971074,-0.000180240,-0.001968522,0.000066821,0.002400105
3.132000000,0.001932113,-0.000178829,-0.001931381,0.000073566,0.002374415
3.152000000,0.001893890,-0.000177288,-0.001894677,0.000079778,0.002347301
3.172000000,0.001856395,-0.000175629,-0.001858433,0.000085475,0.002318914
3.192000000,0.001819621,-0.000173861,-0.001822663,0.000090673,0.002289398
3.212000000,0.001783557,-0.000171995,-0.001787385,0.000095391,0.002258887
3.232000000,0.001748192,-0.000170040,-0.001752611,0.000099649,0.002227509
3.252000000,0.001713518,-0.000168004,-0.001718352,0.000103466,0.002195385
3.272000000,0.001679523,-0.000165897,-0.001684617,0.000106862,0.002162628
3.292000000,0.001646197,-0.000163726,-0.001651415,0.000109857,0.002129344
3.312000000,0.001613528,-0.000161500,-0.001618751,0.000112470,0.002095631
3.332000000,0.001581508,-0.000159225,-0.001586630,0.000114722,0.002061584
3.352000000,0.001550123,-0.000156909,-0.001555055,0.000116633,0.002027287
3.372000000,0.001519364,-0.000154558,-0.001524029,0.000118222,0.001992822
3.392000000,0.001489220,-0.000152179,-0.001493552,0.000119507,0.001958262
3.412000000,0.001459679,-0.000149777,-0.001463624,0.000120509,0.001923675
3.432000000,0.001430731,-0.000147359,-0.001434244,0.000121244,0.001889126
3.452000000,0.001402364,-0.000144928,-0.001405409,0.000121730,0.001854672
3.472000000,0.001374568,-0.000142490,-0.001377118,0.000121985,0.001820366
3.492000000,0.001347332,-0.000140050,-0.001349365,0.000122025,0.001786256
3.512000000,0.001320645,-0.000137611,-0.001322148,0.000121866,0.001752386
3.532000000,0.001294496,-0.000135177,-0.001295460,0.000121523,0.001718797
3.552000000,0.001268875,-0.000132752,-0.001269297,0.000121010,0.001685523
3.572000000,0.001243772,-0.000130339,-0.001243653,0.000120343,0.001652598
3.592000000,0.001219177,-0.000127941,-0.001218520,0.000119533,0.001620049
3.612000000,0.001195078,-0.000125560,-0.001193893,0.000118595,0.001587902
3.632000000,0.001171466,-0.000123200,-0.001169765,0.000117539,0.001556180
3.652000000,0.001148332,-0.000120861,-0.001146127,0.000116378,0.001524901
3.672000000,0.001125665,-0.000118548,-0.001122973,0.000115122,0.001494082
3.692000000,0.001103456,-0.000116260,-0.001100294,0.000113781,0.001463738
3.712000000,0.001081695,-0.000114000,-0.001078083,0.000112365,0.001433880
3.732000000,0.001060373,-0.000111768,-0.001056332,0.000110883,0.001404518
3.752000000,0.001039482,-0.000109568,-0.001035031,0.000109343,0.001375661
3.772000000,0.001019011,-0.000107398,-0.001014174,0.000107754,0.001347313
3.792000000,0.000998953,-0.000105261,-0.000993752,0.000106122,0.001319479
3.812000000,0.000979299,-0.000103157,-0.000973756,0.000104455,0.001292162
3.832000000,0.000960040,-0.000101086,-0.000954178,0.000102759,0.001265364
3.852000000,0.000941167,-0.000099050,-0.000935009,0.000101041,0.001239084
3.872000000,0.000922674,-0.000097048,-0.000916243,0.000099304,0.001213320
3.892000000,0.000904552,-0.000095081,-0.000897869,0.000097555,0.001188072
3.912000000,0.000886793,-0.000093150,-0.000879880,0.000095798,0.001163336
3.932000000,0.000869390,-0.000091253,-0.000862268,0.000094038,0.001139107
3.952000000,0.000852335,-0.000089392,-0.000845026,0.000092278,0.001115382
3.972000000,0.000835621,-0.000087565,-0.000828144,0.000090521,0.001092155
3.992000000,0.000819240,-0.000085774,-0.000811615,0.000088772,0.001069419
