fadelesskekse/control_framework/csv_data/cart_pole/excel_record_log.csv
sim_time,cart_joint_position,pole_joint_position,cart_joint_velocity,pole_joint_velocity,control_input_0
0.002000000,0.300539340,0.300435540,0.269670178,0.217770036,-16.752000000
0.022000000,0.303029625,0.297218318,0.019089478,-0.425806267,-11.946061710
0.042000000,0.301375721,0.284007611,-0.156637547,-0.822499257,-8.543453021
0.062000000,0.296817618,0.264801829,-0.279583051,-1.052636633,-6.105225504
0.082000000,0.290235337,0.242306810,-0.364893570,-1.169981995,-4.346200870
0.102000000,0.282258335,0.218348557,-0.423224237,-1.211599692,-3.070633558
0.122000000,0.273338638,0.194141780,-0.462151849,-1.203362438,-2.139852156
0.142000000,0.263801910,0.170474222,-0.487073984,-1.163320738,-1.454501161
0.162000000,0.253883895,0.147836975,-0.501826886,-1.103954200,-0.943530098
0.182000000,0.243756522,0.126517482,-0.509129795,-1.033769024,-0.556562441
0.202000000,0.233546507,0.106665598,-0.510909446,-0.958462053,-0.258254101
0.222000000,0.223348479,0.088339983,-0.508536160,-0.881770606,-0.024043403
0.242000000,0.213234154,0.071540209,-0.502993350,-0.806085828,0.163024278
0.262000000,0.203258681,0.056228639,-0.494997269,-0.732888008,0.314622816
0.282000000,0.193465020,0.042345127,-0.485080259,-0.663050079,0.438811991
0.302000000,0.183886955,0.029816738,-0.473647828,-0.597045725,0.541206643
0.322000000,0.174551183,0.018564097,-0.461017334,-0.535089961,0.625781825
0.342000000,0.165478773,0.008505469,-0.447443984,-0.477232871,0.695418661
0.362000000,0.156686203,-0.000440668,-0.433138223,-0.423421386,0.752269640
0.382000000,0.148186124,-0.008354030,-0.418277325,-0.373539601,0.798000441
0.402000000,0.139987932,-0.015311576,-0.403013167,-0.327434808,0.833948605
0.422000000,0.132098213,-0.021386967,-0.387477467,-0.284934168,0.861226854
0.442000000,0.124521106,-0.026650289,-0.371785369,-0.245855268,0.880789978
0.462000000,0.117258606,-0.031167939,-0.356037967,-0.210012734,0.893477928
0.482000000,0.110310821,-0.035002614,-0.340324122,-0.177222322,0.900043512
0.502000000,0.103676207,-0.038213361,-0.324721835,-0.147303396,0.901170198
0.522000000,0.097351766,-0.040855669,-0.309299337,-0.120080405,0.897483648
0.542000000,0.091333236,-0.042981582,-0.294115975,-0.095383722,0.889559281
0.562000000,0.085615257,-0.044639819,-0.279222988,-0.073050100,0.877927405
0.582000000,0.080191528,-0.045875907,-0.264664187,-0.052922893,0.863076840
0.602000000,0.075054947,-0.046732313,-0.250476583,-0.034852132,0.845457665
0.622000000,0.070197743,-0.047248580,-0.236690963,-0.018694517,0.825483456
0.642000000,0.065611590,-0.047461456,-0.223332435,-0.004313366,0.803533233
0.662000000,0.061287719,-0.047405028,-0.210420937,0.008421480,0.779953278
0.682000000,0.057217015,-0.047110850,-0.197971720,0.019633759,0.755058867
0.702000000,0.053390104,-0.046608071,-0.185995800,0.029440908,0.729135983
0.722000000,0.049797434,-0.045923560,-0.174500388,0.037954196,0.702443001
0.742000000,0.046429349,-0.045082028,-0.163489290,0.045278861,0.675212365
0.762000000,0.043276149,-0.044106143,-0.152963283,0.051514261,0.647652246
0.782000000,0.040328149,-0.043016652,-0.142920462,0.056754029,0.619948165
0.800000000,0.037575728,-0.041832489,-0.133356566,0.061086243,0.595027741
0.822000000,0.035009375,-0.040570888,-0.124265281,0.064593591,0.564746444
0.842000000,0.032619722,-0.039247484,-0.115638513,0.067353559,0.537520663
0.860000000,0.030612518,-0.038015298,-0.108263661,0.069258513,0.513358919
0.882000000,0.028333981,-0.036470445,-0.099738762,0.070916381,0.484372173
0.902000000,0.026420163,-0.035041000,-0.092442882,0.071849870,0.458625642
0.922000000,0.024647630,-0.033598322,-0.085566129,0.072297641,0.433526338
0.942000000,0.023008149,-0.032151520,-0.079094918,0.072314018,0.409131055
0.962000000,0.021493762,-0.030708662,-0.073015110,0.071949286,0.385486078
0.982000000,0.020096802,-0.029276854,-0.067312156,0.071249891,0.362628187
1.002000000,0.018809894,-0.027862312,-0.061971222,0.070258635,0.340585601
1.022000000,0.017625963,-0.026470435,-0.056977303,0.069014870,0.319378843
1.042000000,0.016538234,-0.025105871,-0.052315325,0.067554693,0.299021555
1.062000000,0.015540234,-0.023772579,-0.047970231,0.065911125,0.279521242
1.082000000,0.014625790,-0.022473892,-0.043927063,0.064114303,0.260879966
1.102000000,0.013789027,-0.021212569,-0.040171028,0.062191647,0.243094983
1.122000000,0.013024363,-0.019990848,-0.036687557,0.060168037,0.226159328
1.142000000,0.012326503,-0.018810498,-0.033462357,0.058065976,0.210062351
1.162000000,0.011690438,-0.017672861,-0.030481456,0.055905747,0.194790217
1.178000000,0.011222885,-0.016794161,-0.028263466,0.054147991,0.183155337
1.202000000,0.010585014,-0.015529220,-0.025198463,0.051481732,0.166651838
1.222000000,0.010106982,-0.014524144,-0.022870319,0.049248753,0.153745833
1.242000000,0.009673378,-0.013563707,-0.020734413,0.047019490,0.141585862
1.262000000,0.009280489,-0.012647707,-0.018778799,0.044805280,0.130148151
1.282000000,0.008924837,-0.011775732,-0.016991989,0.042616050,0.119407901
1.302000000,0.008603168,-0.010947185,-0.015362958,0.040460432,0.109339537
1.322000000,0.008312444,-0.010161309,-0.013881149,0.038345871,0.099916938
1.342000000,0.008049830,-0.009417214,-0.012536471,0.036278722,0.091113633
1.362000000,0.007812692,-0.008713888,-0.011319302,0.034264345,0.082902988
1.382000000,0.007598581,-0.008050228,-0.010220481,0.032307193,0.075258360
1.402000000,0.007405227,-0.007425046,-0.009231306,0.030410896,0.068153239
1.422000000,0.007230527,-0.006837094,-0.008343524,0.028578336,0.061561377
1.442000000,0.007072541,-0.006285070,-0.007549319,0.026811722,0.055456888
1.462000000,0.006929479,-0.005767638,-0.006841310,0.025112653,0.049814349
1.482000000,0.006799694,-0.005283434,-0.006212531,0.023482187,0.044608876
1.502000000,0.006681676,-0.004831078,-0.005656423,0.021920891,0.039816192
1.522000000,0.006574038,-0.004409187,-0.005166821,0.020428905,0.035412687
1.542000000,0.006475515,-0.004016374,-0.004737938,0.019005982,0.031375461
1.562000000,0.006384952,-0.003651266,-0.004364357,0.017651539,0.027682364
1.582000000,0.006301301,-0.003312501,-0.004041007,0.016364701,0.024312027
1.600000000,0.006231135,-0.003029028,-0.003789023,0.015263419,0.021537663
1.622000000,0.006151014,-0.002708667,-0.003526401,0.013989096,0.018458160
1.642000000,0.006082741,-0.002440997,-0.003326636,0.012897440,0.015935946
1.662000000,0.006018092,-0.002194476,-0.003160056,0.011867677,0.013659133
1.682000000,0.005956444,-0.001967887,-0.003023133,0.010897982,0.011610445
1.702000000,0.005897238,-0.001760048,-0.002912605,0.009986430,0.009773430
1.722000000,0.005839980,-0.001569820,-0.002825461,0.009131010,0.008132446
1.742000000,0.005784235,-0.001396102,-0.002758927,0.008329651,0.006672652
1.762000000,0.005729617,-0.001237837,-0.002710454,0.007580238,0.005379995
1.782000000,0.005675793,-0.001094008,-0.002677705,0.006880629,0.004241185
1.802000000,0.005622470,-0.000963644,-0.002658540,0.006228668,0.003243685
1.822000000,0.005569400,-0.000845815,-0.002651009,0.005622200,0.002375681
1.842000000,0.005516369,-0.000739635,-0.002653335,0.005059081,0.001626065
1.862000000,0.005463198,-0.000644261,-0.002663907,0.004537189,0.000984412
1.882000000,0.005409739,-0.000558890,-0.002681264,0.004054431,0.000440951
1.902000000,0.005355871,-0.000482763,-0.002704092,0.003608754,-0.000013458
1.922000000,0.005301497,-0.000415161,-0.002731207,0.003198147,-0.000387347
1.942000000,0.005246544,-0.000355404,-0.002761550,0.002820650,-0.000688670
1.962000000,0.005190957,-0.000302850,-0.002794177,0.002474356,-0.000924825
1.982000000,0.005134700,-0.000256896,-0.002828249,0.002157418,-0.001102682
2.002000000,0.005077753,-0.000216975,-0.002863025,0.001868047,-0.001228608
2.022000000,0.005020109,-0.000182554,-0.002897855,0.001604520,-0.001308493
2.042000000,0.004961773,-0.000153135,-0.002932172,0.001365178,-0.001347771
2.062000000,0.004902762,-0.000128252,-0.002965486,0.001148429,-0.001351451
2.082000000,0.004843098,-0.000107469,-0.002997376,0.000952746,-0.001324134
2.102000000,0.004782816,-0.000090382,-0.003027483,0.000776671,-0.001270041
2.122000000,0.004721955,-0.000076614,-0.003055510,0.000618814,-0.001193030
2.142000000,0.004660558,-0.000065815,-0.003081209,0.000477849,-0.001096624
2.162000000,0.004598675,-0.000057662,-0.003104382,0.000352516,-0.000984030
2.182000000,0.004536357,-0.000051854,-0.003124874,0.000241623,-0.000858154
2.202000000,0.004473660,-0.000048116,-0.003142566,0.000144037,-0.000721629
2.222000000,0.004410641,-0.000046194,-0.003157378,0.000058692,-0.000576827
2.242000000,0.004347358,-0.000045853,-0.003169259,-0.000015422,-0.000425878
2.262000000,0.004283870,-0.000046880,-0.003178184,-0.000079254,-0.000270691
2.282000000,0.004220236,-0.000049078,-0.003184154,-0.000133696,-0.000112965
2.302000000,0.004156514,-0.000052270,-0.003187192,-0.000179584,0.000045794
2.322000000,0.004092764,-0.000056294,-0.003187338,-0.000217705,0.000204255
2.342000000,0.004029042,-0.000061001,-0.003184649,-0.000248790,0.000361253
2.362000000,0.003965405,-0.000066259,-0.003179196,-0.000273525,0.000515775
2.382000000,0.003901906,-0.000071947,-0.003171061,-0.000292547,0.000666942
2.400000000,0.003844919,-0.000077346,-0.003161523,-0.000305273,0.000799505
2.422000000,0.003775533,-0.000084198,-0.003147124,-0.000315781,0.000956337
2.442000000,0.003712758,-0.000090578,-0.003131529,-0.000321054,0.001093402
2.462000000,0.003650321,-0.000097023,-0.003113664,-0.000322738,0.001224770
2.482000000,0.003588264,-0.000103466,-0.003093644,-0.000321268,0.001350098
2.502000000,0.003526631,-0.000109849,-0.003071589,-0.000317045,0.001469118
2.522000000,0.003465459,-0.000116121,-0.003047618,-0.000310436,0.001581633
2.542000000,0.003404788,-0.000122238,-0.003021852,-0.000301778,0.001687512
2.562000000,0.003344650,-0.000128162,-0.002994411,-0.000291380,0.001786677
2.582000000,0.003285078,-0.000133861,-0.002965416,-0.000279521,0.001879102
2.602000000,0.003226102,-0.000139310,-0.002934985,-0.000266458,0.001964805
2.622000000,0.003167750,-0.000144486,-0.002903235,-0.000252421,0.002043844
2.642000000,0.003110046,-0.000149372,-0.002870279,-0.000237620,0.002116309
2.662000000,0.003053013,-0.000153957,-0.002836228,-0.000222244,0.002182320
2.682000000,0.002996672,-0.000158228,-0.002801191,-0.000206461,0.002242024
2.702000000,0.002941042,-0.000162181,-0.002765272,-0.000190422,0.002295588
2.722000000,0.002886139,-0.000165812,-0.002728572,-0.000174263,0.002343196
2.742000000,0.002831978,-0.000169120,-0.002691187,-0.000158101,0.002385048
2.762000000,0.002778571,-0.000172105,-0.002653210,-0.000142041,0.002421357
2.782000000,0.002725929,-0.000174771,-0.002614731,-0.000126176,0.002452344
2.802000000,0.002674062,-0.000177122,-0.002575834,-0.000110585,0.002478235
2.822000000,0.002622976,-0.000179166,-0.002536599,-0.000095335,0.002499265
2.842000000,0.002572678,-0.000180908,-0.002497103,-0.000080486,0.002515670
2.862000000,0.002523173,-0.000182359,-0.002457417,-0.000066086,0.002527685
2.882000000,0.002474462,-0.000183527,-0.002417610,-0.000052176,0.002535549
2.902000000,0.002426548,-0.000184422,-0.002377746,-0.000038789,0.002539496
2.922000000,0.002379432,-0.000185056,-0.002337883,-0.000025951,0.002539760
2.942000000,0.002333112,-0.000185439,-0.002298079,-0.000013681,0.002536569
2.962000000,0.002287587,-0.000185583,-0.002258386,-0.000001994,0.002530147
2.982000000,0.002242855,-0.000185500,-0.002218851,0.000009101,0.002520715
3.002000000,0.002198911,-0.000185201,-0.002179520,0.000019600,0.002508485
3.022000000,0.002155751,-0.000184699,-0.002140433,0.000029502,0.002493664
3.042000000,0.002113370,-0.000184006,-0.002101630,0.000038810,0.002476453
3.062000000,0.002071761,-0.000183133,-0.002063144,0.000047530,0.002457044
3.082000000,0.002030918,-0.000182092,-0.002025008,0.000055671,0.002435623
3.102000000,0.001990834,-0.000180894,-0.001987251,0.000063244,0.002412367
3.122000000,0.001951500,-0.000179551,-0.001949898,0.000070261,0.002387448
3.142000000,0.001912909,-0.000178074,-0.001912973,0.000076738,0.002361026
3.162000000,0.001875052,-0.000176473,-0.001876497,0.000082690,0.002333258
3.182000000,0.001837919,-0.000174758,-0.001840488,0.000088135,0.002304289
3.202000000,0.001801501,-0.000172940,-0.001804962,0.000093091,0.002274259
3.222000000,0.001765788,-0.000171028,-0.001769934,0.000097577,0.002243299
3.242000000,0.001730770,-0.000169032,-0.001735416,0.000101612,0.002211533
3.262000000,0.001696436,-0.000166959,-0.001701418,0.000105216,0.002179079
3.282000000,0.001662777,-0.000164819,-0.001667949,0.000108408,0.002146045
3.300000000,0.001633051,-0.000162842,-0.001638284,0.000110947,0.002115905
3.322000000,0.001597438,-0.000160368,-0.001602622,0.000113640,0.002078644
3.342000000,0.001565737,-0.000158072,-0.001570774,0.000115719,0.002044462
3.362000000,0.001534666,-0.000155737,-0.001539473,0.000117467,0.002010071
3.382000000,0.001504216,-0.000153372,-0.001508722,0.000118901,0.001975549
3.402000000,0.001474375,-0.000150981,-0.001478519,0.000120042,0.001940968
3.422000000,0.001445131,-0.000148570,-0.001448865,0.000120908,0.001906393
3.442000000,0.001416475,-0.000146145,-0.001419758,0.000121517,0.001871884
3.462000000,0.001388395,-0.000143710,-0.001391196,0.000121885,0.001837497
3.482000000,0.001360880,-0.000141270,-0.001363174,0.000122031,0.001803283
3.502000000,0.001333920,-0.000138830,-0.001335690,0.000121969,0.001769288
3.522000000,0.001307504,-0.000136393,-0.001308738,0.000121716,0.001735554
3.542000000,0.001281620,-0.000133963,-0.001282314,0.000121287,0.001702118
3.562000000,0.001256260,-0.000131544,-0.001256411,0.000120695,0.001669015
3.582000000,0.001231412,-0.000129138,-0.001231023,0.000119955,0.001636275
3.602000000,0.001207066,-0.000126748,-0.001206144,0.000119080,0.001603924
3.622000000,0.001183212,-0.000124377,-0.001181767,0.000118081,0.001571987
3.642000000,0.001159840,-0.000122028,-0.001157885,0.000116971,0.001540483
3.662000000,0.001136941,-0.000119701,-0.001134490,0.000115761,0.001509433
3.682000000,0.001114504,-0.000117400,-0.001111575,0.000114461,0.001478850
3.702000000,0.001092520,-0.000115126,-0.001089131,0.000113082,0.001448747
3.722000000,0.001070980,-0.000112880,-0.001067151,0.000111632,0.001419137
3.742000000,0.001049874,-0.000110664,-0.001045626,0.000110120,0.001390026
3.762000000,0.001029194,-0.000108479,-0.001024548,0.000108554,0.001361423
3.782000000,0.001008931,-0.000106326,-0.001003909,0.000106943,0.001333332
3.802000000,0.000989076,-0.000104205,-0.000983701,0.000105293,0.001305756
3.822000000,0.000969620,-0.000102117,-0.000963915,0.000103611,0.001278698
3.842000000,0.000950556,-0.000100064,-0.000944543,0.000101903,0.001252159
3.862000000,0.000931874,-0.000098045,-0.000925576,0.000100174,0.001226137
3.882000000,0.000913567,-0.000096061,-0.000907007,0.000098431,0.001200632
3.902000000,0.000895628,-0.000094111,-0.000888827,0.000096677,0.001175640
3.922000000,0.000878048,-0.000092197,-0.000871028,0.000094918,0.001151158
3.942000000,0.000860820,-0.000090318,-0.000853601,0.000093157,0.001127182
3.962000000,0.000843936,-0.000088474,-0.000836540,0.000091399,0.001103707
3.982000000,0.000827389,-0.000086666,-0.000819836,0.000089646,0.001080726
